X:556
T:Miss M. Ross
R:Reel
B:The Athole Collection
M:C|
L:1/8
K:E Minor
B|e(EE)F GAB^c|dABG FDAF|e(EE)F GABg|afbf g(ee)B|
e(EE)F GAB^c|dABG FDAF|GEAF BGcA|BAGF GEE||
B|e/e/e ge bege|dAfd afdf|e/e/e ge bege|dfBa geef|e/e/e ge bege|
dAfd afdf|geaf bgaf|gef^d e/e/e e||

